packages/core/src/svgs/networks/branded/abstract.svg

<svg width="24" height="24" viewBox="0 0 24 24" fill="none" xmlns="http://www.w3.org/2000/svg">
<path d="M15.1653 15.1111L19.1759 19.119L17.2937 20.9992L13.2831 16.9921C13.1142 16.8223 12.9136 16.6879 12.693 16.5967C12.4723 16.5055 12.236 16.4593 11.9975 16.4608C11.5099 16.4608 11.0572 16.6479 10.7128 16.9921L6.70211 21L4.81994 19.1198L8.83059 15.1111H15.1653ZM15.8342 13.9561L21.3119 15.4208L22 12.8498L16.5224 11.3852C16.292 11.3247 16.0759 11.2187 15.8865 11.0734C15.6971 10.928 15.5382 10.7461 15.419 10.5383C15.2992 10.3325 15.2214 10.1046 15.1903 9.86807C15.1591 9.63151 15.1752 9.39106 15.2376 9.16088L16.7038 3.68827L14.131 3L12.664 8.47344L15.8309 13.9528L15.8342 13.9561ZM8.16575 13.9561L2.6873 15.4208L2 12.8498L7.47762 11.3852C7.70796 11.3247 7.9241 11.2187 8.1135 11.0734C8.30291 10.928 8.4618 10.7461 8.58096 10.5383C8.7008 10.3325 8.77858 10.1046 8.80974 9.86807C8.84089 9.63151 8.82478 9.39106 8.76236 9.16088L7.29622 3.68827L9.86903 3L11.3352 8.47344L8.16825 13.9528L8.16575 13.9561Z" fill="#054729"/>
</svg>

<svg xmlns="http://www.w3.org/2000/svg" width="24" height="24" fill="none" viewBox="0 0 24 24">
    <path fill="#054729" d="m15.165 15.111 4.01 4.008-1.881 1.88-4.01-4.007a1.8 1.8 0 0 0-1.287-.531c-.487 0-.94.187-1.284.531L6.703 21 4.82 19.12l4.01-4.009zm.67-1.155 5.477 1.465L22 12.85l-5.478-1.465a1.8 1.8 0 0 1-1.103-.847 1.8 1.8 0 0 1-.181-1.377l1.466-5.473L14.13 3l-1.467 5.473 3.167 5.48zm-7.67 0-5.478 1.465L2 12.85l5.478-1.465a1.8 1.8 0 0 0 1.103-.847 1.8 1.8 0 0 0 .181-1.377L7.296 3.688 9.87 3l1.466 5.473-3.167 5.48z"/>
</svg>
